X:1
T:El chinito
T:El chinito
T:Francisco Gabilondo Soler
C:Francisco Gabilondo Soler
%%score { 1 | 2 | 3 }
L:1/8
M:2/4
K:D
V:1 treble nm="Piano" snm="Pno."
V:2 treble 
V:3 bass 
V:1
 z4 | z4 | z4 | z4 | z4 | z4 |: DE FD | EF GE | FA dB | A3 z | DD AA | GG d2 | %12
w: ||||||Un chi- ni- to|es- tam- pa- do|en un gran- ja-|rrón|fue.a- cu- sa- do|de de- cir:|
w: ||||||El chi- ni- to|fue lle- va- do|an- te.un man- da-|rín|y.al lle- gar le|di- jo.a- sí:|
 A/ A/ A/ A/ A/ A/ A/ A/ | A A A z :| z4 | z4 | B3 A | BB dd | BB AA | BB AB | F4- | F4 | z4 | z4 | %24
w: "YAN TSE A MO OU- A TING I|DONG CHONG KI"|||El chi-|ni- to no que-|rí a ya vi-|vir en el ja-|rrón||||
w: ||||||||||||
 B3 A | BB dd | BB AA | BB ee | A4- | A4 || DE FD | EF GE | FA dB | A3 z | DD AA | GG d2 | %36
w: pues es-|ta- ba di- bu-|ja- do en las|ga- rras de.un dra-|gón||El chi- ni- to|fue.o- bli- ga- do|a vol- ver a-|llí|pe- ro an- tes|di- jo.a- sí:|
w: ||||||||||||
 A/ A/ A/ A/ A/ A/ A/ A/ | A A A z |] %38
w: "Yan tse a mo ou- a ting i|Pong chong ki"|
w: ||
V:2
 [fb]/[fb]/[fb]/[fb]/ [ea][ea] | [fb][fb] [fd']2 | [fb]/[fb]/[fb]/[fb]/ [ea][ea] | [fb][fb] [df]2 | %4
 [GBd]2 [GBe]2 | [^Acf]2 [=A=cega]2 |: DE FD | EF GE | FA d[D=FB] | [CE=Bc]3 z | %10
 [A,D][A,D] [=CDFA][CDFA] | [B,DG][B,DG] [D=FBd]2 | [CEGA] z z2 | z [Acea] [dfad'] z :| %14
({dc=c)} B4- | B4 | [FB]3 [EA] | [FB][FB] [Ad][Ad] | [FB][FB] [EA][EA] | [FB][FB] [EA][FB] | %20
 [DF]4- | [DF]4 |({B_BA_A)} G4- | G4 | [FB]3 [EA] | [FB][FB] [Ad][Ad] | [FB][FB] [EA][EA] | %27
 [FB][FB] [Be][Be] | ([C-EA-]4 | [C^EA]4) || DE FD | EF GE | FA d[D=FB] | [CE=GA]3 z | %34
 [A,D][A,D] [=CDFA][CDFA] | [B,DG][B,DG] [D=FBd]2 | [CEGA] z z2 | z [Acea] [dfad'] z |] %38
V:3
 [B,,,B,,]2 [B,,,B,,][B,,,B,,] | [B,,,B,,][B,,,B,,] [B,,,B,,]2 | [B,,,B,,]2 [B,,,B,,][B,,,B,,] | %3
 [B,,,B,,][B,,,B,,] [B,,,B,,]2 | [G,,D,G,]2 [E,,B,,E,]2 | [F,,,F,,]2 [=A,,,=A,,]2 |: %6
 D,[F,A,] A,,[F,A,] | E,[G,A,] A,,[G,A,] | D,[F,A,] B,,[=F,^G,B,] | A,E, A,, z | F,,F, D,,D, | %11
 G,,G, [^G,,,^G,,]2 | [A,,A,] z z2 | z [A,,A,] [D,,D,] z :| B,,,F,, B,,,F,, | B,,,F,, B,,,F,, | %16
 B,,,F,, B,,,F,, | B,,,F,, B,,,F,, | B,,,F,, B,,,F,, | B,,,F,, B,,,F,, | B,,,F,, B,,,F,, | %21
 B,,,F,, B,,,F,, | G,,D, G,,D, | G,,D, G,,D, | G,,D, G,,D, | G,,D, G,,D, | G,,D, G,,D, | %27
 G,,D, G,,D, | A,,E, E,E, | A,,^E, E,E, || D,[F,A,] A,,[F,A,] | E,[G,A,] A,,[G,A,] | %32
 D,[F,A,] B,,[=F,^G,B,] | A,E, A,, z | F,,F, D,,D, | G,,G, [^G,,,^G,,]2 | [A,,,A,,] z z2 | %37
 z [A,,A,] [D,,D,] z |] %38

